assets/img/braze_icons/link-03.svg

<svg fill="none" height="24" viewBox="0 0 24 24" width="24" xmlns="http://www.w3.org/2000/svg"><g clip-rule="evenodd" fill="#801ed7" fill-rule="evenodd"><path d="m12.7753 2.75068c1.1316-1.09295 2.6472-1.69772 4.2204-1.68405s3.078.64469 4.1905 1.75714c1.1124 1.11244 1.7434 2.61732 1.7571 4.1905s-.5911 3.08883-1.684 4.22043l-.0122.0124-2.9999 2.9998c-.6082.6085-1.3403 1.0791-2.1464 1.3798s-1.6674.4245-2.5256.363c-.8582-.0614-1.6931-.3067-2.4481-.7192-.7551-.4125-1.41254-.9826-1.92788-1.6716-.33081-.4422-.24046-1.0689.20179-1.3997s1.06889-.2405 1.39979.2018c.3435.4593.7818.8393 1.2852 1.1143.5033.275 1.06.4386 1.6321.4796.5721.0409 1.1463-.0416 1.6837-.2421s1.0254-.5142 1.431-.9198l2.9936-2.99366c.725-.75377 1.1261-1.76164 1.117-2.80769-.0091-1.04879-.4298-2.05204-1.1714-2.79367-.7417-.74163-1.7449-1.16231-2.7937-1.17142-1.0465-.0091-2.0548.39231-2.8087 1.11794l-1.7146 1.70463c-.3916.38938-1.0248.38754-1.4142-.00412s-.3875-1.02483.0041-1.41421l1.72-1.71z"/><path d="m7.89914 8.37325c.80611-.3007 1.66746-.42452 2.52566-.36306.8581.06146 1.6931.30676 2.4481.71927s1.4125.98257 1.9279 1.67154c.3308.4422.2404 1.0689-.2018 1.3997-.4423.3308-1.069.2405-1.3998-.2018-.3435-.4593-.7819-.8393-1.2852-1.1143-.5034-.275-1.06-.4385-1.6321-.4795-.57211-.041-1.14635.0415-1.68376.242-.5374.2005-1.02541.5142-1.43092.9198l-2.99364 2.9937c-.72504.7538-1.12609 1.7616-1.117 2.8077.00911 1.0488.42979 2.052 1.17142 2.7937.74163.7416 1.74488 1.1623 2.79367 1.1714 1.04604.0091 2.05391-.392 2.80768-1.117l1.70355-1.7035c.3905-.3906 1.0237-.3906 1.4142 0 .3905.3905.3905 1.0236 0 1.4142l-1.71 1.71-.0124.0122c-1.1316 1.0929-2.64723 1.6977-4.22041 1.684s-3.07805-.6447-4.1905-1.7571c-1.11245-1.1125-1.74347-2.6174-1.75714-4.1905-.01367-1.5732.5911-3.0888 1.68405-4.2204l.01218-.0124 2.99987-2.99991c-.00004.00004.00004-.00005 0 0 .60824-.60842 1.34033-1.07906 2.14639-1.37974z"/></g></svg>

<svg width="24" height="24" viewBox="0 0 24 24" fill="none" xmlns="http://www.w3.org/2000/svg">
<path fill-rule="evenodd" clip-rule="evenodd" d="M12.7753 2.75068C13.9069 1.65773 15.4225 1.05296 16.9957 1.06663C18.5689 1.0803 20.0737 1.71132 21.1862 2.82377C22.2986 3.93621 22.9296 5.44109 22.9433 7.01427C22.957 8.58745 22.3522 10.1031 21.2593 11.2347L21.2471 11.2471L18.2472 14.2469C17.639 14.8554 16.9069 15.326 16.1008 15.6267C15.2947 15.9274 14.4334 16.0512 13.5752 15.9897C12.717 15.9283 11.8821 15.683 11.1271 15.2705C10.372 14.858 9.71456 14.2879 9.19922 13.5989C8.86841 13.1567 8.95876 12.53 9.40101 12.1992C9.84326 11.8684 10.4699 11.9587 10.8008 12.401C11.1443 12.8603 11.5826 13.2403 12.086 13.5153C12.5893 13.7903 13.146 13.9539 13.7181 13.9949C14.2902 14.0358 14.8644 13.9533 15.4018 13.7528C15.9392 13.5523 16.4272 13.2386 16.8328 12.833L19.8264 9.83934C20.5514 9.08557 20.9525 8.0777 20.9434 7.03165C20.9343 5.98286 20.5136 4.97961 19.772 4.23798C19.0303 3.49635 18.0271 3.07567 16.9783 3.06656C15.9318 3.05746 14.9235 3.45887 14.1696 4.1845L12.455 5.88913C12.0634 6.27851 11.4302 6.27667 11.0408 5.88501C10.6514 5.49335 10.6533 4.86018 11.0449 4.4708L12.7649 2.7608L12.7753 2.75068Z" fill="#801ED7"/>
<path fill-rule="evenodd" clip-rule="evenodd" d="M7.89914 8.37325C8.70525 8.07255 9.5666 7.94873 10.4248 8.01019C11.2829 8.07165 12.1179 8.31695 12.8729 8.72946C13.6279 9.14197 14.2854 9.71203 14.8008 10.401C15.1316 10.8432 15.0412 11.4699 14.599 11.8007C14.1567 12.1315 13.53 12.0412 13.1992 11.5989C12.8557 11.1396 12.4173 10.7596 11.914 10.4846C11.4106 10.2096 10.854 10.0461 10.2819 10.0051C9.70979 9.9641 9.13555 10.0466 8.59814 10.2471C8.06074 10.4476 7.57273 10.7613 7.16722 11.1669L4.17358 14.1606C3.44854 14.9144 3.04749 15.9222 3.05658 16.9683C3.06569 18.0171 3.48637 19.0203 4.228 19.762C4.96963 20.5036 5.97288 20.9243 7.02167 20.9334C8.06771 20.9425 9.07558 20.5414 9.82935 19.8164L11.5329 18.1129C11.9234 17.7223 12.5566 17.7223 12.9471 18.1129C13.3376 18.5034 13.3376 19.1365 12.9471 19.5271L11.2371 21.2371L11.2247 21.2493C10.0931 22.3422 8.57747 22.947 7.00429 22.9333C5.43111 22.9196 3.92624 22.2886 2.81379 21.1762C1.70134 20.0637 1.07032 18.5588 1.05665 16.9857C1.04298 15.4125 1.64775 13.8969 2.7407 12.7653L2.75288 12.7529L5.75275 9.75299C5.75271 9.75303 5.75279 9.75294 5.75275 9.75299C6.36099 9.14457 7.09308 8.67393 7.89914 8.37325Z" fill="#801ED7"/>
</svg>
